X:1
T:Mårtis-Johans Mazurka
R:Mazurka
S:Efter Johan Englund
O:Ersnäs, Norrbotten
B:Låtar i Norrbotten
Z:Johan Dahlberg
M:3/4
L:1/8
K:F
La2 c3/2=d/2 c2|Ld2 _B3/2A/2 B2|G3/2A/2B3/2c/2d3/2e/2|Lf2 c3/2=B/2 c2|
La2 c3/2_B/2 c2|Ld2 _B3/2A/2 B2|G3/2A/2B3/2c/2d3/2e/2|f2f2z2:|
|:Ld2 d3/2e/2f3/2d/2|e3/2f/2e3/2^c/2 A2|La2 a3/2g/2e3/2g/2|(gf)(fe) d2|
Lf2 f3/2g/2a3/2f/2|g3/2a/2g3/2e/2 c2|c3/2=B/2c3/2e/2 ag|f2f2z2:| 

